!!!ONB: MCCC : IFS0592_02 : Extracted Monophonic Melody
!!!COM: Schubert, Franz
!!!OPR: Piano Sonata in C minor
!!!OMV: 2
!!!SCT: D.958
!!!ODT: 1828///
**kern
*staff1
=1
*clefG2
*k[b-e-a-d-]
*A-:
*M4/4
4a-
16a-
16g
16b-
16g
4.a-
8b-
=2
8cc
8cc
8cc
8dd-
4cc
8b-
8cc-
=3
4cc
8.a-
16g
8g
4f
8f
=4
8g
16.a-
32cc
8b-
16.dd
32ff
8.ee-
16dd
8dd-
16cc
16b-
=5
4a-
16a-
16g
16b-
16g
4.a-
8b-
=6
8cc
8cc
8cc
8cc
8dd-
8dd-
8dd-
8cc
=7
8cc
16.b-
32a
16.cc
32b-
16.b-
32a-
8.a-
16ee-
16ff
16gg
16aa-
16bb-
=8
8ccc
8ccc
8ccc
8ccc
8ddd-
8ddd-
8ddd-
8cc
=9
8cc
16.b-
32a
16.cc
32b-
16.b-
32a-
4a-
8r
8A-
=10
4e
4e-
8.a-
32r
32a
8a-
8ee
=11
8ee-
8cc
8a-
8e-
4.e
8e
=12
4a
8.g#
32r
32a
4a-
8g-
8g
=13
4e
16d#
32r
96e
96e-
96d-
16e-
16cc-
8.cc-
32r
96r
96cc-
96dd-
4dd
=14
16dd
16dd-
16a
16a-
8g-
8cc-
4e
8r
8e
=15
8.f#
32r
32g
8g-
8g-
16.g-
32g
16.a
32b
8cc
8g-
=16
4.g-
8cc-
8.ee
32r
32e
4r
=17
8.ee
32r
32e
4r
8.gg-
32r
32g-
4r
=18
1r
=19
1r
=20
1r
=21
1r
=22
4a-
4a-
8.a-
64a-
64a-
64a-
64a-[
8a-]
8b-
=23
8cc
8cc
8cc
8dd-
4cc
4b-
=24
4cc
8.a-
16g
8g
8f
8f
8f
=25
8g
8a-
8b-
8dd
4ee-
8dd-
16cc
16b-
=26
4aa-
16aa-
16gg
16bb-
16gg
8.aa-
64aa-
64aa-
64aa-
64aa-[
8aa-]
8bb-
=27
8ccc
8ccc
8ccc
8ccc
8ddd-
8ddd-
8ddd-
8d-
=28
8d
8d
8d
8dd-
8dd-
16.cc-
32b-
16.dd-
32cc-
16.cc-
32a
=29
8.a
16ee
16gg-
16aa-
16aa
16ccc-
8ddd-
8ddd-
8ddd-
8ddd-
=30
8ddd
8ddd
8ddd
8dd-
8dd-
16.cc-
32b-
16.dd-
32cc-
16.cc-
32a
=31
4a
8r
8A
4f
4e
=32
8.a
32r
32b-
8a
8ff
8ee
8dd-
8a
8e
=33
4.f
8b-
24b-
24eee-
24ddd-
24ccc
24bb-
24aa
24bb-
24ccc
24bb-
24aa-
24gg-
24ff
=34
24gg-
24aa-
24gg-
24ff
24gg-
24aa-
24gg-
24ff
24ee-
24dd-
24cc-
24b-
24a
24g#
24a
24b-
24a
24b-
24cc-
24cc
24dd-
24dd
24ee-
24dd
=35
24ee-
24ff
24gg-
24ff
24ee-
24dd
24ee-
24ff
24gg-
24gg
24aa-
24bb-
4aa-
4gg
=36
8.ccc
32r
32ddd-
8ccc
8aaa-
8ggg
8eee
8ccc
8gg
=37
4bb-
8.aa
32r
32bb-
8aa
4gg
8aa-
=38
4ff
8.ee
16ccc
4ccc
4eee-[
=39
16eee-]
16ddd
16bb-
16aa
8gg
8ccc
4ff
8r
8f
=40
8.g
32r
32a-
8g
8g
16.g
32a-
16.b-
32cc
8dd-
8g
=41
4.g
8cc
8.ff
32r
32f
4r
=42
8.ff
32r
32f
4r
8.gg
32r
32g
4r
=43
1r
=44
1r
=45
1r
=46
1r
=47
16.a-
96b-
96a-
96g
16a-
32cc
32b-
8a-
8g
8a-
16ee-
16ee-
16ee-
16ee-
16ee-[
16ee-]
=48
4.ee-
8ee-
8ee-
8ee
8ff
16dd-
16aa-
=49
4ee-[
4ee-]
4ee
8.ff
32ff[
32ff]
=50
8b-[
4b-]
8b-
8b-
16.ee-[
32ee-]
8ee-
16.dd
32ff
=51
8ee-
16bb-
16gg
24ff
24ee-
24dd
24dd-
24cc
24b-
4a-
16a-
16g
16b-
16g
=52
4.a-
8b-
8cc-
8cc-
8cc-
8cc-
=53
8cc
8cc
4cc
8r
8ccc
8ddd-
8ddd-
=54
4ddd-
8r
8d-
8d
8d
4d
=55
8r
8dd-
8dd-
16.cc-
32b-
8dd-
8cc-
4r
=56
8r
8cc
8cc
16.b-
32a
16.cc
32b-
16.b-
32a-
4a-
=57
4a-
4a-
24g
24b-
24a-
24g
24b-
24ee-
4ee-[
=58
24ee-]
24dd-
24cc
24dd-
24b-
24g
8a-
8cc
4cc
4a-[
=59
4a-]
4r
2r
==
*-
